img/icon-q_all.svg

<svg width="26" height="30" viewBox="0 0 26 30" fill="none" xmlns="http://www.w3.org/2000/svg">
<path d="M23.0455 0H13.591C11.31 0 9.45459 1.96248 9.45459 4.37502V18.125C9.45459 18.47 9.71934 18.7501 10.0455 18.7501C10.3717 18.7501 10.6364 18.47 10.6364 18.125V4.37502C10.6364 2.65254 11.9624 1.25004 13.591 1.25004H20.683C20.3119 1.77252 20.0909 2.42127 20.0909 3.12504V21.25H15.9546C15.6284 21.25 15.3636 21.53 15.3636 21.875C15.3636 22.22 15.6284 22.5 15.9546 22.5H20.6818C21.008 22.5 21.2727 22.22 21.2727 21.875V3.12504C21.2727 2.09127 22.0681 1.25004 23.0455 1.25004C23.3716 1.25004 23.6364 0.970019 23.6364 0.625019C23.6364 0.280019 23.3716 0 23.0455 0Z" fill="white"/>
<path d="M18.3182 17.5H7.68183C5.40094 17.5 3.54545 19.4625 3.54545 21.875V25.625C3.54545 27.3475 2.21945 28.75 0.590927 28.75C0.264745 28.75 0 29.03 0 29.375C0 29.72 0.264745 30 0.590927 30H12.4091C14.69 30 16.5455 28.0375 16.5455 25.625V20.625C16.5455 19.5912 17.3408 18.75 18.3182 18.75C18.6444 18.75 18.9091 18.47 18.9091 18.125C18.9091 17.78 18.6444 17.5 18.3182 17.5ZM15.3637 20.625V25.625C15.3637 27.3474 14.0377 28.7499 12.4091 28.7499H3.48285C4.25105 27.9549 4.7273 26.8487 4.7273 25.625V21.875C4.7273 20.1525 6.0533 18.75 7.68183 18.75H15.9557C15.5846 19.2725 15.3637 19.9212 15.3637 20.625Z" fill="white"/>
<path d="M18.3181 17.5H17.1363C16.8102 17.5 16.5454 17.78 16.5454 18.125C16.5454 18.47 16.8102 18.75 17.1363 18.75H18.3181C19.2955 18.75 20.0909 19.5912 20.0909 20.625V21.875C20.0909 22.22 20.3556 22.5 20.6818 22.5C21.008 22.5 21.2727 22.22 21.2727 21.875V20.625C21.2727 18.9025 19.9467 17.5 18.3181 17.5Z" fill="white"/>
<path d="M23.0453 0C22.7192 0 22.4544 0.280019 22.4544 0.625019C22.4544 0.970019 22.7192 1.25004 23.0453 1.25004C24.0227 1.25004 24.8181 2.09127 24.8181 3.12504V3.75H20.6817C20.3556 3.75 20.0908 4.03002 20.0908 4.37502C20.0908 4.72002 20.3556 5.00004 20.6817 5.00004H25.409C25.7352 5.00004 25.9999 4.72002 25.9999 4.37502V3.12498C25.9999 1.4025 24.6739 0 23.0453 0Z" fill="white"/>
<path d="M18.3184 3.75H12.4093C12.0831 3.75 11.8184 4.03002 11.8184 4.37502C11.8184 4.72002 12.0831 5.00004 12.4093 5.00004H18.3184C18.6446 5.00004 18.9093 4.72002 18.9093 4.37502C18.9093 4.03002 18.6446 3.75 18.3184 3.75Z" fill="white"/>
<path d="M18.3184 7.5H12.4093C12.0831 7.5 11.8184 7.78002 11.8184 8.12502C11.8184 8.47002 12.0831 8.75004 12.4093 8.75004H18.3184C18.6446 8.75004 18.9093 8.47002 18.9093 8.12502C18.9093 7.78002 18.6446 7.5 18.3184 7.5Z" fill="white"/>
<path d="M18.3184 11.25H12.4093C12.0831 11.25 11.8184 11.53 11.8184 11.875C11.8184 12.22 12.0831 12.5 12.4093 12.5H18.3184C18.6446 12.5 18.9093 12.22 18.9093 11.875C18.9093 11.53 18.6446 11.25 18.3184 11.25Z" fill="white"/>
<path d="M18.3184 15H12.4093C12.0831 15 11.8184 15.28 11.8184 15.625C11.8184 15.97 12.0831 16.25 12.4093 16.25H18.3184C18.6446 16.25 18.9093 15.97 18.9093 15.625C18.9093 15.28 18.6446 15 18.3184 15Z" fill="white"/>
<path d="M13.591 21.25H6.50011C6.17393 21.25 5.90918 21.53 5.90918 21.875C5.90918 22.22 6.17393 22.5 6.50011 22.5H13.591C13.9172 22.5 14.1819 22.22 14.1819 21.875C14.1819 21.53 13.9172 21.25 13.591 21.25Z" fill="white"/>
<path d="M13.591 25H6.50011C6.17393 25 5.90918 25.28 5.90918 25.625C5.90918 25.97 6.17393 26.25 6.50011 26.25H13.591C13.9172 26.25 14.1819 25.97 14.1819 25.625C14.1819 25.28 13.9172 25 13.591 25Z" fill="white"/>
</svg>

<svg width="26" height="30" viewBox="0 0 26 30" fill="none" xmlns="http://www.w3.org/2000/svg"><path d="M23.046 0H13.59c-2.28 0-4.135 1.962-4.135 4.375v13.75c0 .345.264.625.59.625.327 0 .591-.28.591-.625V4.375c0-1.722 1.326-3.125 2.955-3.125h7.092a3.23 3.23 0 00-.592 1.875V21.25h-4.136c-.327 0-.591.28-.591.625s.264.625.59.625h4.728c.326 0 .59-.28.59-.625V3.125c0-1.034.796-1.875 1.774-1.875.326 0 .59-.28.59-.625S23.372 0 23.046 0z" fill="#fff"/><path d="M18.318 17.5H7.682c-2.281 0-4.137 1.962-4.137 4.375v3.75c0 1.723-1.326 3.125-2.954 3.125-.326 0-.591.28-.591.625S.265 30 .59 30h11.82c2.28 0 4.136-1.962 4.136-4.375v-5c0-1.034.795-1.875 1.772-1.875.326 0 .591-.28.591-.625s-.265-.625-.59-.625zm-2.954 3.125v5c0 1.722-1.326 3.125-2.955 3.125H3.483a4.484 4.484 0 001.244-3.125v-3.75c0-1.723 1.326-3.125 2.955-3.125h8.274a3.23 3.23 0 00-.592 1.875z" fill="#fff"/><path d="M18.318 17.5h-1.182c-.326 0-.59.28-.59.625s.264.625.59.625h1.182c.977 0 1.773.841 1.773 1.875v1.25c0 .345.265.625.59.625.327 0 .592-.28.592-.625v-1.25c0-1.723-1.326-3.125-2.955-3.125zM23.045 0c-.326 0-.59.28-.59.625s.264.625.59.625c.978 0 1.773.841 1.773 1.875v.625h-4.136c-.326 0-.591.28-.591.625s.265.625.59.625h4.728c.326 0 .59-.28.59-.625v-1.25C26 1.403 24.675 0 23.046 0zm-4.727 3.75H12.41c-.326 0-.59.28-.59.625s.264.625.59.625h5.91c.326 0 .59-.28.59-.625s-.264-.625-.59-.625zm0 3.75H12.41c-.326 0-.59.28-.59.625s.264.625.59.625h5.91c.326 0 .59-.28.59-.625s-.264-.625-.59-.625zm0 3.75H12.41c-.326 0-.59.28-.59.625s.264.625.59.625h5.91c.326 0 .59-.28.59-.625s-.264-.625-.59-.625zm0 3.75H12.41c-.326 0-.59.28-.59.625s.264.625.59.625h5.91c.326 0 .59-.28.59-.625S18.645 15 18.32 15zm-4.727 6.25h-7.09c-.327 0-.592.28-.592.625s.265.625.591.625h7.091c.326 0 .59-.28.59-.625s-.264-.625-.59-.625zm0 3.75h-7.09c-.327 0-.592.28-.592.625s.265.625.591.625h7.091c.326 0 .59-.28.59-.625s-.264-.625-.59-.625z" fill="#fff"/></svg>
